X: 41037
T: Trip To Lerwick, The
R: jig
M: 6/8
K: Gmajor
|:d2d edB|d2B ABG|G.d.d edB|GAB DEF|
GFG AGA|BAB (eg2)|edB GAB|AGE G3:|
|:dgc' bag|deg BAG|dgc' bag|ede g3|
DFA GBd|A^ce B^df|egc' bag|def g3:|
|:bag ede|c'bg ede|Bdf aba|gfe B3|
bag ede|c'bg ede|DFA GBd|edB g3:|

